public/Icons/comparison.svg

<svg width="25" height="24" viewBox="0 0 25 24" fill="none" xmlns="http://www.w3.org/2000/svg">
<g id="24/ comparison">
<path id="Vector" d="M21.5 22.0003H3.5M6.5 18V2H10.5V18H6.5ZM14.5 18V8H18.5V18H14.5Z" stroke="#202020" stroke-width="1.5" stroke-miterlimit="5.759" stroke-linecap="round" stroke-linejoin="round"/>
</g>
</svg>

<svg width="25" height="24" fill="none" xmlns="http://www.w3.org/2000/svg"><path d="M21.5 22h-18m3-4V2h4v16h-4Zm8 0V8h4v10h-4Z" stroke="#202020" stroke-width="1.5" stroke-miterlimit="5.759" stroke-linecap="round" stroke-linejoin="round"/></svg>
